!!!!SEGMENT: pl-sa--172-a-v-2--013_szczurowski-jacek--msza-swiateczna-agnus-dei.krn
!!!cenid: 17xx:273
!!!COM: Szczurowski, Jacek
!!!COM-rism: pe30017605
!!!CDT: 1716/08/15-~1733
!!!CNT: Polish
!!!OTL: Msza świąteczna - Agnus Dei
!!!PDT:
!!!AGN: Sacred; Mass
!!!SMS-siglum: PL-SA
!!!SMS-shelfmark: 172/A V 2
!!!NIFC-rismID:
!!!URL-scan: http://bc.bdsandomierz.pl/dlibra/publication/1506/edition/1474/content
!!!ONB-nifc: UWAGA: części Mszy: Kyrie, Christe, Et in terra, Laudamus, Qui tollis, Quoniam, Patrem, Et Incarnatus, Ressurexit, Sanctus, Osanna, Be
**kern	**fba	**kern	**kern	**kern	**text	**kern	**text	**kern	**kern
*part7	*	*part6	*part5	*part4	*part4	*part3	*part3	*part2	*part1
*staff7	*	*staff6	*staff5	*staff4	*staff4	*staff3	*staff3	*staff2	*staff1
*I"Organo:	*	*I"Violino 2di	*I"Violino. Primo	*I"Soprano 2.do	*	*I"Soprano Primo.	*	*I"Corno 2.do Ex D:	*I"Corno Primo Ex D:
*I'Org.	*	*I'V-no II	*I'V-no I	*I'S. II	*	*I'S. I	*	*I'C.II in E x D	*I'C. in E XxD
*clefF4	*	*clefG2	*clefG2	*clefC1	*	*clefC1	*	*clefG2	*clefG2
*	*	*	*	*	*	*	*	*ITrd6c10	*ITrd6c10
*k[f#c#]	*	*k[f#c#]	*k[f#c#]	*k[f#c#]	*	*k[f#c#]	*	*k[f#c#]	*k[f#c#]
*M4/4	*	*M4/4	*M4/4	*M4/4	*	*M4/4	*	*M4/4	*M4/4
*met(c)	*	*met(c)	*met(c)	*met(c)	*	*met(c)	*	*met(c)	*met(c)
=1	=1	=1	=1	=1	=1	=1	=1	=1	=1
*	*	*	*	*2\right	*	*	*	*	*
!LO:TX:B:i:a:t=Adagio:rj	!	!LO:TX:B:i:a:t=Adagio:rj	!LO:TX:B:i:a:t=Adagio:rj	!LO:TX:B:i:a:t=adagio:rj	!	!LO:TX:B:i:a:t=adagio:rj	!	!LO:TX:B:i:a:t=Adagio	!LO:TX:B:i:a:t=adagio
!LO:TX:t=P:problem=znaki przykluczowe pod sobą	!	!	!	!LO:TX:t=P:problem=kolejność znaków przykluczowych: cc#, f#	!	!LO:TX:t=P:problem=kolejność znaków przykluczowych: cc#, f#	!	!	!
8d\L	.	16.dd\LL	16.aa\LL	2dd\	A-	4dd\	A-	8d\L	8f#\L
.	.	32dd\K	32aa\K	.	.	.	.	.	.
8d\	.	16.dd\	16.aa\	.	.	.	.	8d\	8f#\
.	.	32dd\JJk	32aa\JJk	.	.	.	.	.	.
8d\	.	16.dd\LL	16.aa\LL	.	.	4ff#\	.	8f#\	8a\
.	.	32dd\K	32aa\K	.	.	.	.	.	.
8d\J	.	16.dd\	16.aa\	.	.	.	.	8f#\J	8a\J
.	.	32dd\JJk	32aa\JJk	.	.	.	.	.	.
*	*	*	*	*	*	*2\right	*	*	*
8c#\L	6	16.ee\LL	16.aa\LL	2ee\	-gnus	2aa\	-gnus	8e\L	8a\L
.	.	32ee\K	32aa\K	.	.	.	.	.	.
8c#\	.	16.ee\	16.aa\	.	.	.	.	8e\	8a\
.	.	32ee\JJk	32aa\JJk	.	.	.	.	.	.
8c#\	.	16.ee\LL	16.aa\LL	.	.	.	.	8e\	8a\
.	.	32ee\K	32aa\K	.	.	.	.	.	.
8c#\J	.	16.ee\	16.aa\	.	.	.	.	8e\J	8a\J
.	.	32ee\JJk	32aa\JJk	.	.	.	.	.	.
=2	=2	=2	=2	=2	=2	=2	=2	=2	=2
8B\L	7	16.dd\LL	16.aa\LL	1dd	De-	2aa\	De-	8d\L	8a\L
.	.	32dd\K	32aa\K	.	.	.	.	.	.
8B\	.	16.dd\	16.aa\	.	.	.	.	8d\	8a\
.	.	32dd\JJk	32aa\JJk	.	.	.	.	.	.
8B\	.	16.dd\LL	16.aa\LL	.	.	.	.	8d\	8a\
.	.	32dd\K	32aa\K	.	.	.	.	.	.
8B\J	.	16.dd\	16.aa\	.	.	.	.	8d\J	8a\J
.	.	32dd\JJk	32aa\JJk	.	.	.	.	.	.
8E\L	7 #	16.dd\LL	16.gg#X\LL	.	.	2gg#X\	.	8d\L	8g#X\L
.	.	32dd\K	32gg#\K	.	.	.	.	.	.
8E\	.	16.dd\	16.gg#\	.	.	.	.	8d\	8g#\
.	.	32dd\JJk	32gg#\JJk	.	.	.	.	.	.
!	!	!	!LO:LB:g=original	!	!	!	!	!	!
8E\	.	16.dd\LL	16.gg#X\LL	.	.	.	.	8d\	8g#\
.	.	32dd\K	32gg#\K	.	.	.	.	.	.
8E\J	.	16.dd\	16.gg#\	.	.	.	.	8d\J	8g#\J
.	.	32dd\JJk	32gg#\JJk	.	.	.	.	.	.
!	!	!LO:LB:g=original	!	!	!	!	!	!	!
=3	=3	=3	=3	=3	=3	=3	=3	=3	=3
8A\L	.	16.cc#\LL	16.aa\LL	2cc#\	-i	2aa\	-i	8e\L	8a\L
!	!	!	!LO:SIC:s=32aa	!	!	!	!	!	!
!	!	!	!LO:N:vis=16	!	!	!	!	!	!
.	.	32cc#\K	32aa\K	.	.	.	.	.	.
8A\	.	16.cc#\	16.aa\	.	.	.	.	8e\	8a\
!	!	!	!LO:SIC:s=32aa	!	!	!	!	!	!
!	!	!	!LO:N:vis=16	!	!	!	!	!	!
.	.	32cc#\JJk	32aa\JJk	.	.	.	.	.	.
8A\	.	16.cc#\LL	16.aa\LL	.	.	.	.	8e\	8a\
.	.	32cc#\K	32aa\K	.	.	.	.	.	.
8A\J	.	16.cc#\	16.aa\	.	.	.	.	8e\J	8a\J
.	.	32cc#\JJk	32aa\JJk	.	.	.	.	.	.
8C#/L	5	16.ee\LL	16.ggn\LL	2ee\	qui	2ggn\	qui	8e\L	8gn\L
.	.	32ee\K	32gg\K	.	.	.	.	.	.
8C#/	.	16.ee\	16.gg\	.	.	.	.	8e\	8g\
.	.	32ee\JJk	32gg\JJk	.	.	.	.	.	.
8C#/	.	16.ee\LL	16.gg\LL	.	.	.	.	8e\	8g\
.	.	32ee\K	32gg\K	.	.	.	.	.	.
8C#/J	.	16.ee\	16.gg\	.	.	.	.	8e\J	8g\J
.	.	32ee\JJk	32gg\JJk	.	.	.	.	.	.
=4	=4	=4	=4	=4	=4	=4	=4	=4	=4
8D/L	.	16.dd\LL	16.ff#\LL	1dd	tol-	2ff#\	tol-	8d\L	8f#\L
.	.	32dd\K	32ff#\K	.	.	.	.	.	.
8D/	.	16.dd\	16.ff#\	.	.	.	.	8d\	8f#\
.	.	32dd\JJk	32ff#\JJk	.	.	.	.	.	.
8D/	.	16.dd\LL	16.ff#\LL	.	.	.	.	8d\	8f#\
.	.	32dd\K	32ff#\K	.	.	.	.	.	.
8D/J	.	16.dd\	16.ff#\	.	.	.	.	8d\J	8f#\J
.	.	32dd\JJk	32ff#\JJk	.	.	.	.	.	.
8G#X\L	-7	16.dd\LL	16.ffn\LL	.	.	2ffn\	.	8d\L	8fX\L
.	.	32dd\K	32ff\K	.	.	.	.	.	.
8G#\	.	16.dd\	16.ff\	.	.	.	.	8d\	8f\
.	.	32dd\JJk	32ff\JJk	.	.	.	.	.	.
8G#\	.	16.dd\LL	16.ff\LL	.	.	.	.	8d\	8f\
.	.	32dd\K	32ff\K	.	.	.	.	.	.
8G#\J	.	16.dd\	16.ff\	.	.	.	.	8d\J	8f\J
.	.	32dd\JJk	32ff\JJk	.	.	.	.	.	.
=5	=5	=5	=5	=5	=5	=5	=5	=5	=5
8A\L	.	16.cc#\LL	16.ee\LL	8cc#\	-lis	8ee\	-lis	8A\L	8e\L
.	.	32cc#\K	32ee\K	.	.	.	.	.	.
8A\	.	16.dd\	16.ff#\	8dd\	pec-	8ffn\	pec-	8d\	8fn\
.	.	32dd\JJk	32ff#\JJk	.	.	.	.	.	.
!	!	!	!LO:TX:t=P:problem:dwie ukośne kreski za nutami	!	!	!	!	!	!
!	!	!	!LO:LB:g=original	!	!	!LO:LB:g=original	!	!	!
8A\	.	16.ee\LL	16.gg\LL	8ee\	-ca-	8gg\	-ca-	8e\	8g\
.	.	32ee\K	32gg\K	.	.	.	.	.	.
8A\J	.	16.dd\	16.ffn\	8dd\	-ta	8ffn\	-ta	8d\J	8f\J
.	.	32dd\JJk	32ff\JJk	.	.	.	.	.	.
!LO:TX:a:t=P:problem:mixed beam	!	!	!	!	!	!	!	!	!
8A\L	.	16.dd\LL	16.ff\LL	8dd\	mun-	8ff\	mun-	8d\L	8fn\L
.	.	32cc#\JK	32ee\JK	.	.	.	.	.	.
8A\	.	8cc#\J	8ee\J	8cc#\	-di	8ee\	-di	8A\J	8e\J
8A\	.	8r	8r	8r	.	8r	.	4r	4r
8AA/J	.	8e/	8fn/	8e/	pec-	8dd\	pec-	.	.
!	!	!LO:LB:g=original	!	!	!	!	!	!LO:LB:g=original	!
=6	=6	=6	=6	=6	=6	=6	=6	=6	=6
8AA/L	.	16.c#/LL	16.e/LL	8e/L	-ca-	8cc#\L	-ca-	2rg	2rg
.	.	32c#/K	32e/K	.	.	.	.	.	.
8AA/	.	16.d/	16.fn/	8fn/	.	8dd\	.	.	.
.	.	32d/JJk	32f/JJk	.	.	.	.	.	.
8AA/	.	16.e/LL	16.g/LL	8g/J	.	8ee\	.	.	.
.	.	32e/K	32g/K	.	.	.	.	.	.
!	!	!	!	!LO:LB:g=original	!	!	!	!	!
8AA/J	.	16.d/	16.f/	8f/	-ta	8dd\J	.	.	.
.	.	32d/JJk	32f/JJk	.	.	.	.	.	.
*	*	*	*	*	*	*Xtuplet	*	*	*
!LO:LB:g=original	!	!	!	!	!	!	!	!	!
!LO:TX:a:t=P:problem:mixed beam	!	!	!	!	!	!	!	!	!
8AA/L	4	16.d/LL	16.f/LL	8fn/	mun-	12dd\	-ta	4r	4r
.	.	.	.	.	.	12dd\	mun-	.	.
.	.	32c#/JK	32e/JK	.	.	.	.	.	.
8AA/	3	8c#/J	8e/J	8e/	-di	.	.	.	.
.	.	.	.	.	.	12cc#\	-di	.	.
8A\	.	8r	8r	8r	.	8r	.	8r	4e\
8Gn\J	2	8e/	8cc#\	8a\	Mi-	8cc#\	Mi-	8A/	.
!	!	!	!	!	!	!	!	!	!LO:LB:g=original
=7	=7	=7	=7	=7	=7	=7	=7	=7	=7
8F#\L	6	16.c#/LL	16.dd\LL	2a\	.	2dd\	.	8d\L	8f#X\L
.	.	32c#/K	32dd\K	.	.	.	.	.	.
8F#\	.	16.d/	16.dd\	.	.	.	.	8d\	8f#\
.	.	32d/JJk	32dd\JJk	.	.	.	.	.	.
8F#\	.	16.e/LL	16.dd\LL	.	.	.	.	8d\	8f#\
.	.	32e/K	32dd\K	.	.	.	.	.	.
8F#\J	.	16.d/	16.dd\	.	.	.	.	8d\J	8f#\J
.	.	32d/JJk	32dd\JJk	.	.	.	.	.	.
8G\L	.	16.d/LL	16.dd\LL	2b\	-se-	2dd\	-se-	8d\L	8b\L
.	.	32c#/JK	32dd\K	.	.	.	.	.	.
8G\	.	8c#/J	16.dd\	.	.	.	.	8d\	8b\
.	.	.	32dd\JJk	.	.	.	.	.	.
8G\	.	8r	16.dd\LL	.	.	.	.	8d\	8b\
.	.	.	32dd\K	.	.	.	.	.	.
8G\J	.	8e/	16.dd\	.	.	.	.	8d\J	8b\J
.	.	.	32dd\JJk	.	.	.	.	.	.
!	!	!	!LO:LB:g=original	!	!	!	!	!	!
=8	=8	=8	=8	=8	=8	=8	=8	=8	=8
!LO:TX:a:t=P:problem:w źródle dwa krzyżyki - jeden przekreślony	!	!	!	!	!	!	!	!	!
8G#X\L	6	16.a/LL	16.ee\LL	2b\	-re-	2ee\	-re-	8e\L	8b\L
.	.	32a/K	32ee\K	.	.	.	.	.	.
8G#\	.	16.a/	16.ee\	.	.	.	.	8e\	8b\
.	.	32a/JJk	32ee\JJk	.	.	.	.	.	.
8G#\	.	16.a/LL	16.ee\LL	.	.	.	.	8e\	8b\
.	.	32a/K	32ee\K	.	.	.	.	.	.
8G#\J	.	16.a/	16.ee\	.	.	.	.	8e\J	8b\J
.	.	32a/JJk	32ee\JJk	.	.	.	.	.	.
*	*	*	*	*	*	*	*	*2\right	*2\right
8G#\L	-3	16.b/LL	16.ffn\LL	2dd\	-re	2ffn\	-re	2d\	2fX\
.	.	32b/K	32ff\K	.	.	.	.	.	.
8G#\	.	16.b/	16.ff\	.	.	.	.	.	.
.	.	32b/JJk	32ff\JJk	.	.	.	.	.	.
8G#\	.	16.b/LL	16.ff\LL	.	.	.	.	.	.
.	.	32b/K	32ff\K	.	.	.	.	.	.
8G#\J	.	16.b/	16.ff\	.	.	.	.	.	.
.	.	32b/JJk	32ff\JJk	.	.	.	.	.	.
!	!	!LO:LB:g=original	!	!	!	!	!	!	!
=9	=9	=9	=9	=9	=9	=9	=9	=9	=9
!LO:TX:a:t=P:problem:mixed beam	!	!	!	!	!LO:SIC:s=ffn	!	!	!	!
8A\L	4	16.b/LL	16.ffn\LL	16dd\LL	No-	16ff#\LL	no-	16d\LL	16fX\LL
.	.	.	.	16cc#\JJ	.	16ee\JJ	.	16A\J	16e\J
.	.	32b/K	32ee\JK	.	.	.	.	.	.
8AA/	3	16.b/	8ee\J	8cc#\	-bis	8ee\	-bis	8A\J	8e\J
.	.	32b/JJk	.	.	.	.	.	.	.
8AA/	.	16.b/LL	8r	8r	.	8r	.	4r	4r
.	.	32b/K	.	.	.	.	.	.	.
8AA/J	.	16.b/	8f#X/	8dd\	Mi-	8dd\	Mi-	.	.
.	.	32b/JJk	.	.	.	.	.	.	.
16A\LL	.	16.dd\LL	8e/L	8cc#\L	-se-	8cc#\L	-se-	2rg	2rg
16A\	.	.	.	.	.	.	.	.	.
.	.	32dd\K	.	.	.	.	.	.	.
16A\	.	16.dd\	8f#X/	8dd\J	.	8dd\J	.	.	.
16A\JJ	.	.	.	.	.	.	.	.	.
.	.	32dd\JJk	.	.	.	.	.	.	.
16A\LL	.	16.dd\LL	8g/	8ee\	-re-	8ee\	-re-	.	.
16A\	.	.	.	.	.	.	.	.	.
.	.	32dd\K	.	.	.	.	.	.	.
!	!	!	!	!	!	!LO:LB:g=original	!	!	!
16A\	.	16.dd\	8f#/J	8dd\	-re	8dd\	-re	.	.
16A\JJ	.	.	.	.	.	.	.	.	.
.	.	32dd\JJk	.	.	.	.	.	.	.
=10	=10	=10	=10	=10	=10	=10	=10	=10	=10
!LO:TX:a:t=P:problem:mixed beam	!	!	!	!	!	!	!	!	!
8A\L	.	16.dd\LL	16.f#/LL	16dd\LL	No-	16dd\LL	no-	4r	4r
.	.	.	.	16cc#\JJ	.	16cc#\JJ	.	.	.
.	.	32cc#\JK	32e/JK	.	.	.	.	.	.
8AA/	.	8cc#\J	8e/J	8cc#\	-bis	8cc#\	-bis	.	.
8AA/	.	8r	8r	8r	.	8r	.	8r	8r
8AA/J	.	8d/	8ff#\	8dd\	Mi-	8ff#X\	Mi-	8d\	8f#X\
16AA/LL	.	8c#/L	8ee\L	8cc#\L	-se-	8ee\L	-se-	8A\L	8e\L
16AA/	.	.	.	.	.	.	.	.	.
16AA/	.	8d/	8ff#\	8dd\J	.	8ff#\J	.	8d\	8f#\
16AA/JJ	.	.	.	.	.	.	.	.	.
16AA/LL	.	8e/	8gg\	8ee\	-re-	8gg\	-re-	8e\	8g\
16AA/	.	.	.	.	.	.	.	.	.
16AA/	.	8d/J	8ff#\J	8dd\	-re	8ff#\	-re	8d\J	8f#\J
16AA/JJ	.	.	.	.	.	.	.	.	.
=11	=11	=11	=11	=11	=11	=11	=11	=11	=11
8AA/L	.	16d/LL	16.ff#\LL	16dd\LL	No-	16ff#\LL	no-	16d\LL	16f#\LL
.	.	16c#/J	.	16cc#\JJ	.	16ee\JJ	.	16A\J	16e\J
.	.	.	32ee\JK	.	.	.	.	.	.
16AA/L	.	8c#/J	8ee\J	8cc#\	-bis	8ee\	-bis	8A\J	8e\J
16AA/JJ	.	.	.	.	.	.	.	.	.
16AA/LL	.	8r	8r	8r	.	8r	.	8r	8r
16AA/	.	.	.	.	.	.	.	.	.
16AA/	.	8dd\	8ee\	8cc#\	Mi-	8ee\	Mi-	8A/	8e\
16AA/JJ	.	.	.	.	.	.	.	.	.
!LO:TX:a:t=P:problem:mixed beam	!	!	!	!	!	!	!	!	!
8AA/L	.	8cc#\L	16.ee\LL	2cc#\	.	2ee\	.	8A/L	8e\L
.	.	.	32ee\K	.	.	.	.	.	.
8A\	.	8dd\	16.ee\	.	.	.	.	8A/	8e\
.	.	.	32ee\JJk	.	.	.	.	.	.
!	!	!	!LO:LB:g=original	!	!	!	!	!	!
8Gn\	.	8ee\	16.ee\LL	.	.	.	.	8A/	8e\
.	.	.	32ee\K	.	.	.	.	.	.
8G\J	2	8dd\J	16.ee\	.	.	.	.	8A/J	8e\J
.	.	.	32ee\JJk	.	.	.	.	.	.
!LO:LB:g=original	!	!	!	!LO:LB:g=original	!	!	!	!	!
=12	=12	=12	=12	=12	=12	=12	=12	=12	=12
8F#\L	6	16dd\LL	16.dd\LL	2a\	-se-	2dd\	-se-	8d\L	8f#\L
.	.	16cc#\J	.	.	.	.	.	.	.
.	.	.	32dd\K	.	.	.	.	.	.
8F#\	.	8cc#\J	16.dd\	.	.	.	.	8d\	8f#\
.	.	.	32dd\JJk	.	.	.	.	.	.
8F#\	.	8r	16.dd\LL	.	.	.	.	8d\	8f#\
.	.	.	32dd\K	.	.	.	.	.	.
8F#\J	.	8cc#\	16.dd\	.	.	.	.	8d\J	8f#\J
.	.	.	32dd\JJk	.	.	.	.	.	.
8E\L	7	16.cc#\LL	16.dd\LL	2g/	-re-	2dd\	-re-	8d\L	8g\L
.	.	32cc#\K	32dd\K	.	.	.	.	.	.
8E\	.	16.cc#\	16.dd\	.	.	.	.	8d\	8g\
.	.	32cc#\JJk	32dd\JJk	.	.	.	.	.	.
8E\	.	16.cc#\LL	16.dd\LL	.	.	.	.	8d\	8g\
.	.	32cc#\K	32dd\K	.	.	.	.	.	.
8E\J	.	16.cc#\	16.dd\	.	.	.	.	8d\J	8g\J
.	.	32cc#\JJk	32dd\JJk	.	.	.	.	.	.
!	!	!LO:LB:g=original	!	!	!	!	!	!	!
=13	=13	=13	=13	=13	=13	=13	=13	=13	=13
8AA/L	7	16.a/LL	16.cc#\LL	2g/	-re	2cc#\	-re	8A/L	8e\L
.	.	32a/K	32cc#\K	.	.	.	.	.	.
8AA/	.	16.a/	16.cc#\	.	.	.	.	8A/	8e\
.	.	32a/JJk	32cc#\JJk	.	.	.	.	.	.
8AA/	.	16.a/LL	16.cc#\LL	.	.	.	.	8A/	8e\
!	!	!	!LO:SIC:s=32cc#	!	!	!	!	!	!
!	!	!	!LO:N:vis=16	!	!	!	!	!	!
.	.	32a/K	32cc#\K	.	.	.	.	.	.
8AA/J	.	16.a/	16.cc#\	.	.	.	.	8A/J	8e\J
!	!	!	!LO:SIC:s=32cc#	!	!	!	!	!LO:LB:g=original	!
!	!	!	!LO:N:vis=16	!	!	!	!	!	!
.	.	32a/JJk	32cc#\JJk	.	.	.	.	.	.
8D/L	.	16.g/LL	16.dd\LL	2f#/	No-	2dd\	No-	8d\L	8f#\L
.	.	32g/K	32dd\K	.	.	.	.	.	.
8D/	.	16.g/	16.dd\	.	.	.	.	8d\	8f#\
.	.	32g/JJk	32dd\JJk	.	.	.	.	.	.
8D/	.	16.g/LL	16.dd\LL	.	.	.	.	8d\	8f#\
.	.	32g/K	32dd\K	.	.	.	.	.	.
8D/J	.	16.g/	16.dd\	.	.	.	.	8d\J	8f#\J
.	.	32g/JJk	32dd\JJk	.	.	.	.	.	.
=14	=14	=14	=14	=14	=14	=14	=14	=14	=14
!LO:TX:t=P:problem:pusty takt przez nadmiarowy takt w vl2	!	!LO:TX:t=P:problem:nadmiarowy tekat	!LO:TX:t=P:problem:pusty takt przez nadmiarowy takt w vl2	!LO:TX:t=P:problem:pusty takt przez nadmiarowy takt w vl2	!	!LO:TX:t=P:problem:pusty takt przez nadmiarowy takt w vl2	!	!LO:TX:t=P:problem:pusty takt przez nadmiarowy takt w vl2	!LO:TX:t=P:problem:pusty takt przez nadmiarowy takt w vl2
1ryy	.	16.g/LL	1ryy	1ryy	.	1ryy	.	1ryy	1ryy
.	.	32g/K	.	.	.	.	.	.	.
.	.	16.g/	.	.	.	.	.	.	.
.	.	32g/JJk	.	.	.	.	.	.	.
.	.	16.g/LL	.	.	.	.	.	.	.
.	.	32g/K	.	.	.	.	.	.	.
.	.	16.g/	.	.	.	.	.	.	.
.	.	32g/JJk	.	.	.	.	.	.	.
.	.	16.f#/LL	.	.	.	.	.	.	.
.	.	32f#/K	.	.	.	.	.	.	.
.	.	16.f#/	.	.	.	.	.	.	.
.	.	32f#/JJk	.	.	.	.	.	.	.
.	.	16.f#/LL	.	.	.	.	.	.	.
.	.	32f#/K	.	.	.	.	.	.	.
.	.	16.f#/	.	.	.	.	.	.	.
.	.	32f#/JJk	.	.	.	.	.	.	.
=15	=15	=15	=15	=15	=15	=15	=15	=15	=15
!	!	!	!LO:SIC:s=16.fn	!	!	!	!	!	!
!	!	!	!LO:N:vis=16	!	!	!	!	!	!
8G#X\L	.	16.d/LL	16.fn/LL	2dd\	.	2ffn\	.	2d\	2fX\
!	!	!	!LO:SIC:s=32f	!	!	!	!	!	!
!	!	!	!LO:N:vis=16	!	!	!	!	!	!
.	.	32d/K	32f/K	.	.	.	.	.	.
!	!	!	!LO:SIC:s=16.f	!	!	!	!	!	!
!	!	!	!LO:N:vis=16	!	!	!	!	!	!
8G#\	.	16.d/	16.f/	.	.	.	.	.	.
!	!	!	!LO:SIC:s=32f	!	!	!	!	!	!
!	!	!	!LO:N:vis=16	!	!	!	!	!	!
.	.	32d/JJk	32f/JJk	.	.	.	.	.	.
8G#\	.	16.d/LL	16.f/LL	.	.	.	.	.	.
.	.	32d/K	32f/K	.	.	.	.	.	.
8G#\J	.	16.d/	16.f/	.	.	.	.	.	.
.	.	32d/JJk	32f/JJk	.	.	.	.	.	.
!	!	!	!LO:LB:g=original	!	!	!	!	!	!
!LO:TX:a:t=P:problem:mixed beam	!	!	!	!	!	!	!	!	!
8A\L	.	16.d/LL	16.f/LL	16dd\LL	.	16ff\LL	.	16d\LL	16fX\LL
.	.	.	.	16cc#\JJ	.	16ee\JJ	.	16A\J	16e\J
.	.	32c#/JK	32e/JK	.	.	.	.	.	.
8AA/	.	8c#/J	8e/J	8cc#\	-bis	8ee\	-bis	8A\J	8e\J
8AA/J	.	8r	8r	8r	.	8r	.	4r	4r
8r	.	8a/	8aa\	8b\	Mi-	8a\	mi-	.	.
!	!	!LO:LB:g=original	!	!	!	!LO:LB:g=original	!	!	!
=16	=16	=16	=16	=16	=16	=16	=16	=16	=16
*M3/8	*	*M3/8	*M3/8	*M3/8	*	*M3/8	*	*M3/8	*M3/8
!LO:TX:B:i:a:t=all(egr)o	!	!LO:TX:B:i:a:t=all(egr)o	!LO:TX:B:i:a:t=all(egr)o	!LO:TX:B:i:a:t=all(egr)o	!	!LO:TX:B:i:a:t=all(egr)o	!	!	!LO:TX:B:i:a:t=all(egr)o
!	!	!	!	!	!	!	!	!LO:TX:a:t=2.	!LO:TX:a:t=2.
!	!	!	!	!	!	!	!	!LO:N:vis=0	!LO:N:vis=0
4D/	.	4ff#\	4ddd\	4dd\	.	4dd\	.	2.r	2.r
8r	.	8ff#\	8aa\	8a\	-se-	8a\	-se-	.	.
=17	=17	=17	=17	=17	=17	=17	=17	=17	=17
4AA/	.	4gg\	4eee\	4cc#\	-re-	4ee\	-re-	.	.
8r	.	8ee\	8gg\	8ee\	-re	8gg\	-re	.	.
=18	=18	=18	=18	=18	=18	=18	=18	=18	=18
4D/	.	8dd\L	8ff#\L	4.dd\	No-	4.ff#\	No-	8r	8r
.	.	8ff#\	8ddd\	.	.	.	.	8f#\L	8dd\L
8r	.	8dd\J	8ff#\J	.	.	.	.	8e\J	8f#\J
!	!	!	!	!	!	!	!	!	!LO:LB:g=original
=19	=19	=19	=19	=19	=19	=19	=19	=19	=19
!LO:TX:a:t=P:problem:mixed beam	!	!	!	!	!	!	!	!	!
8A\L	4	8dd\L	8ff#\L	8dd\	.	8ff#\	.	8d\L	8f#\L
8AA/J	3	8cc#\J	8ee\J	8cc#\	-bis	8ee\	-bis	8A\J	8e\J
8r	.	8f#/	8a/	8r	.	8r	.	8r	8r
=20	=20	=20	=20	=20	=20	=20	=20	=20	=20
!	!	!	!	!	!	!	!	!	!LO:TX:a:t=P:problem:łuk nad "4"
!	!	!	!	!	!	!	!	!	!LO:TX:a:t=4
!	!	!	!	!	!	!	!	!LO:N:vis=00	!LO:N:vis=00
4D/	.	4f#/	4dd\	4f#/	Mi-	4dd\	Mi-	1.r	1.r
8r	.	8f#/	8a/	8f#/	-se-	8a\	-se-	.	.
=21	=21	=21	=21	=21	=21	=21	=21	=21	=21
4AA/	.	4g/	4ee\	4g\	-re-	4ee\	-re-	.	.
8r	.	8e/	8g/	8e/	-re	8g/	-re	.	.
=22	=22	=22	=22	=22	=22	=22	=22	=22	=22
4D/	.	8d/L	8f#/L	4.d/	No-	4.f#/	No-	.	.
.	.	8f#/	8dd/	.	.	.	.	.	.
8r	.	8d/J	8f#/J	.	.	.	.	.	.
=23	=23	=23	=23	=23	=23	=23	=23	=23	=23
!LO:TX:a:t=P:problem:mixed beam	!	!	!	!	!	!	!	!	!
8A\L	4	8d/L	8f#/L	8d/	.	8f#/	.	.	.
8AA/	3	8c#/J	8e/J	8c#/	-bis	8e/	-bis	.	.
8Gn\J	2	8e/	8cc#\	8r	.	8r	.	.	.
!LO:LB:g=original	!	!	!	!LO:LB:g=original	!	!	!	!	!
=24	=24	=24	=24	=24	=24	=24	=24	=24	=24
*M4/4	*	*M4/4	*M4/4	*M4/4	*	*M4/4	*	*M4/4	*M4/4
*met(c)	*	*met(c)	*met(c)	*met(c)	*	*met(c)	*	*met(c)	*met(c)
!LO:TX:B:i:a:t=adagio	!	!LO:TX:B:i:a:t=adagio	!LO:TX:B:i:a:t=adagio	!	!	!LO:TX:B:i:a:t=adagio	!	!LO:TX:B:i:a:t=adagio	!LO:TX:B:i:a:t=adagio
8D\L	2	16.a/LL	16.dd\LL	4f#/	Mi-	4dd\	Mi-	8d\L	8f#\L
.	.	32a/K	32dd\K	.	.	.	.	.	.
8F#\	.	16.a/	16.dd\	.	.	.	.	8d\	8f#\
.	.	32a/JJk	32dd\JJk	.	.	.	.	.	.
!	!	!	!LO:LB:g=original	!	!	!	!	!	!
8F#\	.	16.a/LL	16.dd\LL	4a/	-se-	4dd\	-se-	8d\	8f#\
.	.	32a/K	32dd\K	.	.	.	.	.	.
8F#\J	.	16.a/	16.dd\	.	.	.	.	8d\J	8f#\J
.	.	32a/JJk	32dd\JJk	.	.	.	.	.	.
!	!	!	!	!	!	!LO:LB:g=original	!	!	!
8G\L	6	16.ee\LL	16.gg\LL	4ee\	-re-	4gg\	-re-	8e\L	8g\L
.	.	32ee\K	32gg\K	.	.	.	.	.	.
8G\	.	16.ee\	16.gg\	.	.	.	.	8e\	8g\
.	.	32ee\JJk	32gg\JJk	.	.	.	.	.	.
8G\	.	16.ee\LL	16.gg\LL	4ee\	-re	4gg\	-re	8e\	8g\
!	!	!	!LO:SIC:s=32gg	!	!	!	!	!	!
!	!	!	!LO:N:vis=16	!	!	!	!	!	!
.	.	32ee\K	32gg\K	.	.	.	.	.	.
8G\J	.	16.ee\	16.gg\	.	.	.	.	8e\J	8g\J
!	!	!	!LO:SIC:s=32gg	!	!	!	!	!	!
!	!	!	!LO:N:vis=16	!	!	!	!	!	!
.	.	32ee\JJk	32gg\JJk	.	.	.	.	.	.
=25	=25	=25	=25	=25	=25	=25	=25	=25	=25
8A\L	.	16.dd\LL	16.ff#\LL	2dd\	No-	2ff#\	No-	8d\L	8f#\L
.	.	32dd\K	32ff#\K	.	.	.	.	.	.
8A\	.	16.dd\	16.ff#\	.	.	.	.	8d\	8f#\
.	.	32dd\JJk	32ff#\JJk	.	.	.	.	.	.
!	!	!LO:LB:g=original	!	!	!	!	!	!	!
8A\	.	16.dd\LL	16.ff#\LL	.	.	.	.	8d\	8f#\
.	.	32dd\K	32ff#\K	.	.	.	.	.	.
8A\J	.	16.dd\	16.ff#\	.	.	.	.	8d\J	8f#\J
.	.	32dd\JJk	32ff#\JJk	.	.	.	.	.	.
8AA/L	3	16.cc#\LL	16.ee\LL	2cc#\	.	2ee\	.	8A/L	8e\L
.	.	32cc#\K	32ee\K	.	.	.	.	.	.
8AA/	.	16.cc#\	16.ee\	.	.	.	.	8A/	8e\
.	.	32cc#\JJk	32ee\JJk	.	.	.	.	.	.
8AA/	.	16.cc#\LL	16.ee\LL	.	.	.	.	8A/	8e\
.	.	32cc#\K	32ee\K	.	.	.	.	.	.
8AA/J	.	16.cc#\	16.ee\	.	.	.	.	8A/J	8e\J
.	.	32cc#\JJk	32ee\JJk	.	.	.	.	.	.
=26	=26	=26	=26	=26	=26	=26	=26	=26	=26
*	*	*2\right	*2\right	*	*	*	*	*	*
!	!	!LO:SIC:s=2dd	!	!	!	!	!	!	!
2D/	.	2.dd\	2dd\	2dd\	-bis	2dd\	-bis	2F#/	2d\
2rBB	.	.	2rg	2r	.	2r	.	2rg	2rg
!LO:TX:a:t=P:problem:znak repetycji na końcu	!	!LO:TX:a:t=P:problem:znak repetycji na końcu	!LO:TX:a:t=P:problem:znak repetycji na końcu	!LO:TX:a:t=P:problem:znak repetycji na końcu	!	!LO:TX:a:t=P:problem:znak repetycji na końcu	!	!	!
!	!	!LO:SIC:s=2r	!	!	!	!	!	!	!
!	!	!LO:N:vis=2.	!	!	!	!	!	!	!
.	.	4rg	.	.	.	.	.	.	.
==	==	==	==	==	==	==	==	==	==
*-	*-	*-	*-	*-	*-	*-	*-	*-	*-
!!!system-decoration: [(s1,s2)][(s3,s4)][(s5,s6)]s7
!!!EED: Mateusz Mrugas
!!!EST: 2020-10-02
!!!ENC: Berenika Jozajtis
!!!END: 2020-04-20
